X: 381
T: Bognor Rocks
%R: ree.
Z: 2014 John Chambers <jc:trillian.mit.edu>
B: Preston "Twenty four Country Dances for the Year 1800" p.171 #1
F: http://www.vwml.org/browse/browse-collections-dance-tune-books/browse-prestons1800# 2014-8-10
M: C|
L: 1/8
K: A
|:\
a2ed cAec | Bcde fBbg |\
a2ed cAec | dfed cAA2 ::\
c/B/A EA cAec |
Bcde fBed |\
[1 c/B/A EA cAec | dBed cAA2 :|\
[2 cefd eabg | afed cAA2 |]
% - - - - - - - - - - - - - - - - - - - - - - - - -
%%begintext align
%% Cast off 2 Cu: .| cast up again :| lead
%% down 2 Cu: :|. up again & cast off :|:
%%endtext
% - - - - - - - - - - - - - - - - - - - - - - - - -

%%sep 1 1 500
%%sep 1 1 500
